Flat-Remix-Dark/apps/scalable/photofilmstrip.svg

<svg xmlns="http://www.w3.org/2000/svg" xmlns:xlink="http://www.w3.org/1999/xlink" width="384pt" height="384pt" version="1.1" viewBox="0 0 384 384"> <defs> <filter id="alpha" width="100%" height="100%" x="0%" y="0%" filterUnits="objectBoundingBox"> <feColorMatrix in="SourceGraphic" type="matrix" values="0 0 0 0 1 0 0 0 0 1 0 0 0 0 1 0 0 0 1 0"/> </filter> <mask id="mask0"> <g filter="url(#alpha)"> <rect width="384" height="384" x="0" y="0" style="fill:rgb(0%,0%,0%);fill-opacity:0.2"/> </g> </mask> <clipPath id="clip1"> <rect width="384" height="384" x="0" y="0"/> </clipPath> <g id="surface5" clip-path="url(#clip1)"> <path style="fill:rgb(0%,0%,0%)" d="M 360 349.199219 L 360 46.800781 C 360 37.523438 352.476562 30 343.199219 30 L 40.800781 30 C 31.523438 30 24 37.523438 24 46.800781 L 24 349.199219 C 24 358.476562 31.523438 366 40.800781 366 L 343.199219 366 C 352.476562 366 360 358.476562 360 349.199219 Z M 360 349.199219"/> </g> <mask id="mask1"> <g filter="url(#alpha)"> <rect width="384" height="384" x="0" y="0" style="fill:rgb(0%,0%,0%);fill-opacity:0.2"/> </g> </mask> <clipPath id="clip2"> <rect width="384" height="384" x="0" y="0"/> </clipPath> <g id="surface8" clip-path="url(#clip2)"> <path style="fill:rgb(0%,0%,0%)" d="M 336 54 L 300 54 L 300 90 L 336 90 Z M 336 306 L 300 306 L 300 342 L 336 342 Z M 252 54 L 216 54 L 216 90 L 252 90 Z M 252 306 L 216 306 L 216 342 L 252 342 Z M 168 54 L 132 54 L 132 90 L 168 90 Z M 168 306 L 132 306 L 132 342 L 168 342 Z M 84 54 L 48 54 L 48 90 L 84 90 Z M 84 306 L 48 306 L 48 342 L 84 342 Z M 84 306"/> </g> <mask id="mask2"> <g filter="url(#alpha)"> <rect width="384" height="384" x="0" y="0" style="fill:rgb(0%,0%,0%);fill-opacity:0.101961"/> </g> </mask> <clipPath id="clip3"> <rect width="384" height="384" x="0" y="0"/> </clipPath> <g id="surface11" clip-path="url(#clip3)"> <path style="fill:rgb(100.000%,100.000%,100.000%)" d="M 40.804688 24 C 31.496094 24 24 31.496094 24 40.804688 L 24 46.804688 C 24 37.496094 31.496094 30 40.804688 30 L 343.195312 30 C 352.503906 30 360 37.496094 360 46.804688 L 360 40.804688 C 360 31.496094 352.503906 24 343.195312 24 Z M 40.804688 24"/> </g> <mask id="mask3"> <g filter="url(#alpha)"> <rect width="384" height="384" x="0" y="0" style="fill:rgb(0%,0%,0%);fill-opacity:0.2"/> </g> </mask> <clipPath id="clip4"> <rect width="384" height="384" x="0" y="0"/> </clipPath> <g id="surface14" clip-path="url(#clip4)"> <path style="fill:rgb(0%,0%,0%)" d="M 180 210 C 165.792969 232.957031 134.328125 240.816406 109.730469 227.554688 C 85.125 214.308594 76.695312 184.957031 90.898438 162 Z M 180 210"/> </g> <mask id="mask4"> <g filter="url(#alpha)"> <rect width="384" height="384" x="0" y="0" style="fill:rgb(0%,0%,0%);fill-opacity:0.2"/> </g> </mask> <clipPath id="clip5"> <rect width="384" height="384" x="0" y="0"/> </clipPath> <g id="surface17" clip-path="url(#clip5)"> <path style="fill:rgb(0%,0%,0%)" d="M 204 210 C 218.207031 232.957031 249.671875 240.816406 274.269531 227.554688 C 298.875 214.308594 307.304688 184.957031 293.101562 162 Z M 204 210"/> </g> </defs> <g> <use mask="url(#mask0)" xlink:href="#surface5"/> <path style="fill:rgb(29.803%,29.803%,29.803%)" d="M 360 343.199219 L 360 40.800781 C 360 31.523438 352.476562 24 343.199219 24 L 40.800781 24 C 31.523438 24 24 31.523438 24 40.800781 L 24 343.199219 C 24 352.476562 31.523438 360 40.800781 360 L 343.199219 360 C 352.476562 360 360 352.476562 360 343.199219 Z M 360 343.199219"/> <use mask="url(#mask1)" xlink:href="#surface8"/> <path style="fill:rgb(100.000%,100.000%,100.000%)" d="M 336 48 L 300 48 L 300 84 L 336 84 Z M 336 300 L 300 300 L 300 336 L 336 336 Z M 252 48 L 216 48 L 216 84 L 252 84 Z M 252 300 L 216 300 L 216 336 L 252 336 Z M 168 48 L 132 48 L 132 84 L 168 84 Z M 168 300 L 132 300 L 132 336 L 168 336 Z M 84 48 L 48 48 L 48 84 L 84 84 Z M 84 300 L 48 300 L 48 336 L 84 336 Z M 84 300"/> <use mask="url(#mask2)" xlink:href="#surface11"/> <use mask="url(#mask3)" xlink:href="#surface14"/> <path style="fill:rgb(97.254%,87.058%,40.784%)" d="M 180 204 C 165.792969 226.957031 134.328125 234.816406 109.730469 221.554688 C 85.125 208.308594 76.695312 178.957031 90.898438 156 Z M 180 204"/> <path style="fill:rgb(6.666%,17.647%,36.078%)" d="M 132.65625 178.5 L 132.65625 180 C 130.066406 193.230469 135.167969 209.042969 148.324219 226.453125 C 148.476562 226.417969 148.628906 226.398438 148.78125 226.359375 C 142.359375 214.101562 143.410156 200.4375 149.660156 187.652344 Z M 132.65625 178.5"/> <use mask="url(#mask4)" xlink:href="#surface17"/> <path style="fill:rgb(97.254%,87.058%,40.784%)" d="M 204 204 C 218.207031 226.957031 249.671875 234.816406 274.269531 221.554688 C 298.875 208.308594 307.304688 178.957031 293.101562 156 Z M 204 204"/> <path style="fill:rgb(6.666%,17.647%,36.078%)" d="M 251.34375 178.5 L 251.34375 180 C 253.933594 193.230469 248.832031 209.042969 235.675781 226.453125 C 235.523438 226.414062 235.371094 226.398438 235.21875 226.359375 C 241.640625 214.101562 240.589844 200.4375 234.339844 187.652344 Z M 251.34375 178.5"/> </g> </svg>

<svg width="512" height="512" version="1.1" viewBox="0 0 384 384" xmlns="http://www.w3.org/2000/svg"><defs><clipPath><rect width="384" height="384"/></clipPath><clipPath><rect width="384" height="384"/></clipPath><clipPath><rect width="384" height="384"/></clipPath><clipPath><rect width="384" height="384"/></clipPath><clipPath><rect width="384" height="384"/></clipPath></defs><path d="m360 343.2v-302.4c0-9.2773-7.5234-16.801-16.801-16.801h-302.4c-9.2773 0-16.801 7.5234-16.801 16.801v302.4c0 9.2773 7.5234 16.801 16.801 16.801h302.4c9.2773 0 16.801-7.5234 16.801-16.801z" fill="#323232"/><g><path d="m180 211.5c-14.207 22.957-45.672 30.816-70.27 17.555-24.605-13.246-33.035-42.598-18.832-65.555z"/><path d="m336 55.5h-36v36h36zm0 252h-36v36h36zm-84-252h-36v36h36zm0 252h-36v36h36zm-84-252h-36v36h36zm0 252h-36v36h36zm-84-252h-36v36h36zm0 252h-36v36h36z" opacity=".3"/><path d="m204 211.5c14.207 22.957 45.672 30.816 70.27 17.555 24.605-13.246 33.035-42.598 18.832-65.555z"/></g><path d="m336 48h-36v36h36zm0 252h-36v36h36zm-84-252h-36v36h36zm0 252h-36v36h36zm-84-252h-36v36h36zm0 252h-36v36h36zm-84-252h-36v36h36zm0 252h-36v36h36z" fill="#fff"/><path d="m180 204c-14.207 22.957-45.672 30.816-70.27 17.555-24.605-13.246-33.035-42.598-18.832-65.555z" fill="#f8de66"/><path d="m132.66 178.5v1.5c-2.5898 13.23 2.5117 29.043 15.668 46.453 0.15234-0.0352 0.30469-0.0547 0.45703-0.0937-6.4219-12.258-5.3711-25.922 0.87891-38.707z" fill="#0f2b5c"/><path d="m204 204c14.207 22.957 45.672 30.816 70.27 17.555 24.605-13.246 33.035-42.598 18.832-65.555z" fill="#f8de66"/><path d="m251.34 178.5v1.5c2.5898 13.23-2.5117 29.043-15.668 46.453-0.15234-0.0391-0.30469-0.0547-0.45703-0.0937 6.4219-12.258 5.3711-25.922-0.87891-38.707z" fill="#0f2b5c"/><path transform="scale(.75)" d="m32 447.6v10c0 12.37 10.031 22.4 22.4 22.4h403.2c12.37 0 22.4-10.031 22.4-22.4v-10c0 12.37-10.031 22.4-22.4 22.4h-403.2c-12.37 0-22.4-10.031-22.4-22.4z" opacity=".3" stroke-width="1.3333"/><path transform="scale(.75)" d="m54.4 32c-12.37 0-22.4 10.031-22.4 22.4v10c0-12.37 10.031-22.4 22.4-22.4h403.2c12.37 0 22.4 10.031 22.4 22.4v-10c0-12.37-10.031-22.4-22.4-22.4h-403.2z" fill="#fff" opacity=".3" stroke-width="1.3333"/></svg>
